front/assets/images/erreur.svg

<svg width="16" height="16" viewBox="0 0 16 16" fill="none" xmlns="http://www.w3.org/2000/svg">
<path fill-rule="evenodd" clip-rule="evenodd" d="M15.3333 7.99996L11.6666 1.66663H4.33329L0.666626 7.99996L4.33329 14.3333H11.6666L15.3333 7.99996ZM9.88535 5.17126L8.00001 7.05726L6.11468 5.17126L5.17135 6.1146L7.05735 7.99993L5.17135 9.88526L6.11468 10.8286L8.00001 8.9426L9.88535 10.8286L10.8287 9.88526L8.94268 7.99993L10.8287 6.1146L9.88535 5.17126Z" fill="#CE0500"/>
</svg>

<svg xmlns="http://www.w3.org/2000/svg" width="16" height="16" fill="none"><path fill="#CE0500" fill-rule="evenodd" d="m15.333 8-3.666-6.333H4.333L.667 8l3.666 6.333h7.334zM9.885 5.171 8 7.057 6.115 5.171l-.944.944L7.057 8 5.171 9.885l.944.944L8 8.943l1.885 1.886.944-.944L8.943 8l1.886-1.885z" clip-rule="evenodd"/></svg>
